Adwaita++/actions/scalable/media-optical-copy.svg

<svg height="64" width="64" xmlns="http://www.w3.org/2000/svg">
  <path d="m32 5c-15.512 0-28 12.488-28 28s12.488 28 28 28 28-12.488 28-28-12.488-28-28-28zm0 16a12 12 0 0 1 12 12 12 12 0 0 1 -12 12 12 12 0 0 1 -12-12 12 12 0 0 1 12-12z" opacity=".2"/>
  <path d="m32 17a15 15 0 0 0 -15 15 15 15 0 0 0 15 15 15 15 0 0 0 15-15 15 15 0 0 0 -15-15zm0 9c3.3138 0 6 2.6862 6 6s-2.6862 6-6 6-6-2.6862-6-6 2.6862-6 6-6z" fill="#858585"/>
  <path d="m32 4c-15.512 0-28 12.488-28 28s12.488 28 28 28 28-12.488 28-28-12.488-28-28-28zm0 16a12 12 0 0 1 12 12 12 12 0 0 1 -12 12 12 12 0 0 1 -12-12 12 12 0 0 1 12-12z" fill="#e4e4e4"/>
  <path d="m32 4c-15.512 0-28 12.488-28 28 0 .11345.0112805.224113.0175781.335938.3515432-15.201757 12.6931499-27.335938 27.9824219-27.335938s27.630879 12.134181 27.982422 27.335938c.006298-.111825.017578-.222488.017578-.335938 0-15.512-12.488-28-28-28zm-11.949219 28.996094a12 12 0 0 0 -.050781 1.003906 12 12 0 0 0 .025391.5 12 12 0 0 1 .02539-.503906 12 12 0 0 0 11.949219 11.003906 12 12 0 0 0 11.949219-10.996094 12 12 0 0 1 .029297.591797 12 12 0 0 0 .021484-.595703 12 12 0 0 0 -.050781-.996094 12 12 0 0 1 -11.949219 10.996094 12 12 0 0 1 -11.949219-11.003906z" fill="#fff" opacity=".2"/>
  <path d="m63.958 45.848a16 16 0 0 1 -15.958 15.152 16 16 0 0 1 -15.958-14.848 16 16 0 0 0 -.042.848 16 16 0 0 0 16 16 16 16 0 0 0 16-16 16 16 0 0 0 -.04296-1.15234z" opacity=".2"/>
  <path d="m48.242349 30.32593c-8.980631 0-16.210526 7.229895-16.210526 16.210527 0 8.980631 7.229895 16.210526 16.210526 16.210526 8.980632 0 16.210527-7.229895 16.210527-16.210526 0-8.980632-7.229895-16.210527-16.210527-16.210527zm0 9.263158a6.9473684 6.9473684 0 0 1 6.947369 6.947369 6.9473684 6.9473684 0 0 1 -6.947369 6.947368 6.9473684 6.9473684 0 0 1 -6.947368-6.947368 6.9473684 6.9473684 0 0 1 6.947368-6.947369z" opacity=".2" stroke-width=".578947"/>
  <circle cx="48.242348" cy="45.966263" fill="#fff" r="4"/>
  <g stroke-width=".578947">
    <path d="m48.242349 37.273299a8.6842105 8.6842105 0 0 0 -8.68421 8.68421 8.6842105 8.6842105 0 0 0 8.68421 8.684211 8.6842105 8.6842105 0 0 0 8.684211-8.684211 8.6842105 8.6842105 0 0 0 -8.684211-8.68421zm0 5.210526c1.918516 0 3.473685 1.555169 3.473685 3.473684 0 1.918516-1.555169 3.473685-3.473685 3.473685-1.918515 0-3.473684-1.555169-3.473684-3.473685 0-1.918515 1.555169-3.473684 3.473684-3.473684z" fill="#858585"/>
    <path d="m48.242349 29.746983c-8.980631 0-16.210526 7.229895-16.210526 16.210526 0 8.980632 7.229895 16.210527 16.210526 16.210527 8.980632 0 16.210527-7.229895 16.210527-16.210527 0-8.980631-7.229895-16.210526-16.210527-16.210526zm0 9.263158a6.9473684 6.9473684 0 0 1 6.947369 6.947368 6.9473684 6.9473684 0 0 1 -6.947369 6.947369 6.9473684 6.9473684 0 0 1 -6.947368-6.947369 6.9473684 6.9473684 0 0 1 6.947368-6.947368z" fill="#e4e4e4"/>
    <path d="m48.242349 29.746983c-8.980631 0-16.210526 7.229895-16.210526 16.210526 0 .06568.0065.12975.01018.194491.203525-8.801017 7.348666-15.82607 16.200349-15.82607 8.851684 0 15.996825 7.025053 16.20035 15.82607.0036-.06474.01018-.128809.01018-.194491-.000003-8.980631-7.229898-16.210526-16.21053-16.210526zm-6.917969 16.787212a6.9473684 6.9473684 0 0 0 -.0294.581209 6.9473684 6.9473684 0 0 0 .0147.289474 6.9473684 6.9473684 0 0 1 .0147-.291735 6.9473684 6.9473684 0 0 0 6.917969 6.370682 6.9473684 6.9473684 0 0 0 6.917969-6.36616 6.9473684 6.9473684 0 0 1 .01696.34262 6.9473684 6.9473684 0 0 0 .01244-.344881 6.9473684 6.9473684 0 0 0 -.0294-.576686 6.9473684 6.9473684 0 0 1 -6.917969 6.36616 6.9473684 6.9473684 0 0 1 -6.917969-6.370683z" fill="#fff" opacity=".2"/>
  </g>
</svg>

<?xml version="1.0" encoding="UTF-8" standalone="no"?>
<svg
   xmlns:dc="http://purl.org/dc/elements/1.1/"
   xmlns:cc="http://creativecommons.org/ns#"
   xmlns:rdf="http://www.w3.org/1999/02/22-rdf-syntax-ns#"
   xmlns:svg="http://www.w3.org/2000/svg"
   xmlns="http://www.w3.org/2000/svg"
   xmlns:sodipodi="http://sodipodi.sourceforge.net/DTD/sodipodi-0.dtd"
   xmlns:inkscape="http://www.inkscape.org/namespaces/inkscape"
   width="64"
   height="64"
   version="1"
   id="svg16"
   sodipodi:docname="3.svg"
   inkscape:version="0.92.3 (2405546, 2018-03-11)">
  <metadata
     id="metadata22">
    <rdf:RDF>
      <cc:Work
         rdf:about="">
        <dc:format>image/svg+xml</dc:format>
        <dc:type
           rdf:resource="http://purl.org/dc/dcmitype/StillImage" />
        <dc:title></dc:title>
      </cc:Work>
    </rdf:RDF>
  </metadata>
  <defs
     id="defs20" />
  <sodipodi:namedview
     pagecolor="#ffffff"
     bordercolor="#666666"
     borderopacity="1"
     objecttolerance="10"
     gridtolerance="10"
     guidetolerance="10"
     inkscape:pageopacity="0"
     inkscape:pageshadow="2"
     inkscape:window-width="1567"
     inkscape:window-height="1004"
     id="namedview18"
     showgrid="false"
     inkscape:zoom="12.96875"
     inkscape:cx="32"
     inkscape:cy="32"
     inkscape:window-x="0"
     inkscape:window-y="34"
     inkscape:window-maximized="0"
     inkscape:current-layer="svg16" />
  <path
     style="opacity:0.2"
     d="M 32,5 C 16.488,5 4,17.488 4,33 4,48.512 16.488,61 32,61 47.512,61 60,48.512 60,33 60,17.488 47.512,5 32,5 Z m 0,16 A 12,12 0 0 1 44,33 12,12 0 0 1 32,45 12,12 0 0 1 20,33 12,12 0 0 1 32,21 Z"
     id="path2" />
  <path
     style="fill:#858585"
     d="M 32,17 A 15,15 0 0 0 17,32 15,15 0 0 0 32,47 15,15 0 0 0 47,32 15,15 0 0 0 32,17 Z m 0,9 c 3.3138,0 6,2.6862 6,6 0,3.3138 -2.6862,6 -6,6 -3.3138,0 -6,-2.6862 -6,-6 0,-3.3138 2.6862,-6 6,-6 z"
     id="path4" />
  <path
     style="fill:#e4e4e4"
     d="M 32,4 C 16.488,4 4,16.488 4,32 4,47.512 16.488,60 32,60 47.512,60 60,47.512 60,32 60,16.488 47.512,4 32,4 Z m 0,16 A 12,12 0 0 1 44,32 12,12 0 0 1 32,44 12,12 0 0 1 20,32 12,12 0 0 1 32,20 Z"
     id="path6" />
  <path
     style="opacity:0.2;fill:#ffffff"
     d="M 32 4 C 16.488 4 4 16.488 4 32 C 4 32.11345 4.0112805 32.224113 4.0175781 32.335938 C 4.3691213 17.134181 16.710728 5 32 5 C 47.289272 5 59.630879 17.134181 59.982422 32.335938 C 59.98872 32.224113 60 32.11345 60 32 C 60 16.488 47.512 4 32 4 z M 20.050781 32.996094 A 12 12 0 0 0 20 34 A 12 12 0 0 0 20.025391 34.5 A 12 12 0 0 1 20.050781 33.996094 A 12 12 0 0 0 32 45 A 12 12 0 0 0 43.949219 34.003906 A 12 12 0 0 1 43.978516 34.595703 A 12 12 0 0 0 44 34 A 12 12 0 0 0 43.949219 33.003906 A 12 12 0 0 1 32 44 A 12 12 0 0 1 20.050781 32.996094 z"
     id="path8" />
  <path
     style="opacity:0.2"
     d="M 63.958,45.848 A 16,16 0 0 1 48,61 16,16 0 0 1 32.042,46.152 16,16 0 0 0 32,47 16,16 0 0 0 48,63 16,16 0 0 0 64,47 16,16 0 0 0 63.95704,45.84766 Z"
     id="path10" />
  <path
     id="path837"
     d="m 48.242349,30.32593 c -8.980631,0 -16.210526,7.229895 -16.210526,16.210527 0,8.980631 7.229895,16.210526 16.210526,16.210526 8.980632,0 16.210527,-7.229895 16.210527,-16.210526 0,-8.980632 -7.229895,-16.210527 -16.210527,-16.210527 z m 0,9.263158 a 6.9473684,6.9473684 0 0 1 6.947369,6.947369 6.9473684,6.9473684 0 0 1 -6.947369,6.947368 6.9473684,6.9473684 0 0 1 -6.947368,-6.947368 6.9473684,6.9473684 0 0 1 6.947368,-6.947369 z"
     style="opacity:0.2;stroke-width:0.57894737"
     inkscape:connector-curvature="0" />
  <circle
     style="opacity:1;fill:#ffffff;fill-opacity:1;stroke:none;stroke-width:1.45136833;stroke-linecap:butt;stroke-linejoin:round;stroke-miterlimit:4;stroke-dasharray:none;stroke-opacity:1"
     id="path845"
     cx="48.242348"
     cy="45.966263"
     r="4" />
  <path
     id="path839"
     d="m 48.242349,37.273299 a 8.6842105,8.6842105 0 0 0 -8.68421,8.68421 8.6842105,8.6842105 0 0 0 8.68421,8.684211 8.6842105,8.6842105 0 0 0 8.684211,-8.684211 8.6842105,8.6842105 0 0 0 -8.684211,-8.68421 z m 0,5.210526 c 1.918516,0 3.473685,1.555169 3.473685,3.473684 0,1.918516 -1.555169,3.473685 -3.473685,3.473685 -1.918515,0 -3.473684,-1.555169 -3.473684,-3.473685 0,-1.918515 1.555169,-3.473684 3.473684,-3.473684 z"
     style="fill:#858585;stroke-width:0.57894737"
     inkscape:connector-curvature="0" />
  <path
     id="path841"
     d="m 48.242349,29.746983 c -8.980631,0 -16.210526,7.229895 -16.210526,16.210526 0,8.980632 7.229895,16.210527 16.210526,16.210527 8.980632,0 16.210527,-7.229895 16.210527,-16.210527 0,-8.980631 -7.229895,-16.210526 -16.210527,-16.210526 z m 0,9.263158 a 6.9473684,6.9473684 0 0 1 6.947369,6.947368 6.9473684,6.9473684 0 0 1 -6.947369,6.947369 6.9473684,6.9473684 0 0 1 -6.947368,-6.947369 6.9473684,6.9473684 0 0 1 6.947368,-6.947368 z"
     style="fill:#e4e4e4;stroke-width:0.57894737"
     inkscape:connector-curvature="0" />
  <path
     id="path843"
     d="m 48.242349,29.746983 c -8.980631,0 -16.210526,7.229895 -16.210526,16.210526 0,0.06568 0.0065,0.12975 0.01018,0.194491 0.203525,-8.801017 7.348666,-15.82607 16.200349,-15.82607 8.851684,0 15.996825,7.025053 16.20035,15.82607 0.0036,-0.06474 0.01018,-0.128809 0.01018,-0.194491 -3e-6,-8.980631 -7.229898,-16.210526 -16.21053,-16.210526 z M 41.32438,46.534195 a 6.9473684,6.9473684 0 0 0 -0.0294,0.581209 6.9473684,6.9473684 0 0 0 0.0147,0.289474 6.9473684,6.9473684 0 0 1 0.0147,-0.291735 6.9473684,6.9473684 0 0 0 6.917969,6.370682 6.9473684,6.9473684 0 0 0 6.917969,-6.36616 6.9473684,6.9473684 0 0 1 0.01696,0.34262 6.9473684,6.9473684 0 0 0 0.01244,-0.344881 6.9473684,6.9473684 0 0 0 -0.0294,-0.576686 6.9473684,6.9473684 0 0 1 -6.917969,6.36616 6.9473684,6.9473684 0 0 1 -6.917969,-6.370683 z"
     style="opacity:0.2;fill:#ffffff;stroke-width:0.57894737"
     inkscape:connector-curvature="0" />
</svg>
